static/search.svg

<svg xmlns="http://www.w3.org/2000/svg" width="14" height="14">
  <path fill="#FFF" fill-rule="evenodd" d="M10.2464594 9.4297584L14 13.183299 13.183299 14l-3.7535406-3.7535406c-.99552637.8146659-2.2680888 1.3034375-3.65480996 1.3034375C2.58553249 11.5498969 0 8.96436439 0 5.77494844S2.58553249 0 5.77494844 0c3.18941595 0 5.77494846 2.58553249 5.77494846 5.77494844 0 1.38672116-.4887716 2.65928359-1.3034375 3.65480996zm-4.47151096.9651488c2.55153276 0 4.61995876-2.068426 4.61995876-4.61995876s-2.068426-4.61995875-4.61995876-4.61995875-4.61995875 2.06842599-4.61995875 4.61995875 2.06842599 4.61995876 4.61995875 4.61995876z"/>
</svg>

<svg xmlns="http://www.w3.org/2000/svg" width="14" height="14" viewBox="0 0 14 14">
  <path fill="#FFF" fill-rule="evenodd" d="M10.2464594,9.4297584 L14,13.183299 L13.183299,14 L9.4297584,10.2464594 C8.43423203,11.0611253 7.1616696,11.5498969 5.77494844,11.5498969 C2.58553249,11.5498969 0,8.96436439 0,5.77494844 C0,2.58553249 2.58553249,0 5.77494844,0 C8.96436439,0 11.5498969,2.58553249 11.5498969,5.77494844 C11.5498969,7.1616696 11.0611253,8.43423203 10.2464594,9.4297584 Z M5.77494844,10.3949072 C8.3264812,10.3949072 10.3949072,8.3264812 10.3949072,5.77494844 C10.3949072,3.22341568 8.3264812,1.15498969 5.77494844,1.15498969 C3.22341568,1.15498969 1.15498969,3.22341568 1.15498969,5.77494844 C1.15498969,8.3264812 3.22341568,10.3949072 5.77494844,10.3949072 Z"/>
</svg>
